X: 31
T:Otero Covelo. Ejercicio 2
M:C
L:1/2
C:Enrique Otero Covelo
K:C
G2|F2|E2|D2| "calderón" C2 |: B, C | D E | F E | D C| B, C| D E | F G |
A B | c B | A G | F E |!
 D C :| B, "repetir en negras"C ||

